public/assets/img/icon/wcu-icon_2-1.svg

<svg width="36" height="35" viewBox="0 0 36 35" fill="none" xmlns="http://www.w3.org/2000/svg">
<path d="M6.88525 14.3443C6.31785 14.3443 5.76318 14.176 5.2914 13.8608C4.81962 13.5455 4.45192 13.0975 4.23478 12.5733C4.01764 12.0491 3.96083 11.4722 4.07152 10.9157C4.18222 10.3592 4.45545 9.84804 4.85667 9.44682C5.25788 9.04561 5.76906 8.77238 6.32557 8.66168C6.88207 8.55099 7.4589 8.6078 7.98311 8.82493C8.50733 9.04207 8.95538 9.40978 9.27062 9.88156C9.58585 10.3533 9.7541 10.908 9.7541 11.4754C9.75319 12.236 9.45065 12.9652 8.91283 13.503C8.37502 14.0408 7.64584 14.3434 6.88525 14.3443ZM6.88525 9.7541C6.54481 9.7541 6.21201 9.85505 5.92894 10.0442C5.64587 10.2333 5.42525 10.5022 5.29497 10.8167C5.16469 11.1312 5.1306 11.4773 5.19702 11.8112C5.26343 12.1451 5.42737 12.4518 5.6681 12.6926C5.90883 12.9333 6.21554 13.0972 6.54944 13.1636C6.88334 13.2301 7.22944 13.196 7.54397 13.0657C7.8585 12.9354 8.12733 12.7148 8.31647 12.4317C8.50561 12.1487 8.60656 11.8159 8.60656 11.4754C8.60656 11.0189 8.42521 10.5811 8.1024 10.2583C7.7796 9.93545 7.34177 9.7541 6.88525 9.7541Z" fill="#F41E1E"/>
<path d="M5.16394 26.3934H0.573777C0.421604 26.3934 0.275663 26.333 0.168061 26.2254C0.0604577 26.1178 7.06713e-06 25.9718 7.06713e-06 25.8197C-0.00168807 24.2304 0.301582 22.6557 0.893368 21.1807L2.76788 16.4936C3.01868 15.8668 3.481 15.3476 4.07462 15.0261C4.66824 14.7045 5.3557 14.6009 6.01771 14.7333C6.40363 14.811 6.76967 14.9666 7.09353 15.1904C7.41738 15.4142 7.69226 15.7016 7.9014 16.0352L10.0984 19.5518L12.7951 19.9368C13.2469 20.0007 13.6577 20.2337 13.9446 20.5886C14.2314 20.9435 14.373 21.394 14.3408 21.8492C14.3085 22.3044 14.1048 22.7304 13.7708 23.0414C13.4368 23.3523 12.9973 23.525 12.5409 23.5246H8.03279C7.92617 23.5246 7.82164 23.495 7.73093 23.4389C7.64023 23.3829 7.56693 23.3027 7.51927 23.2073L6.56796 21.3047L5.72796 25.9224C5.70392 26.0545 5.63432 26.174 5.53126 26.26C5.4282 26.3461 5.29822 26.3933 5.16394 26.3934ZM1.16189 25.2459H4.68484L5.74747 19.4055C5.76908 19.2871 5.82739 19.1785 5.91414 19.095C6.00089 19.0116 6.11169 18.9575 6.23085 18.9405C6.35002 18.9235 6.47151 18.9444 6.57814 19.0003C6.68477 19.0561 6.77113 19.1441 6.82501 19.2517L8.38738 22.377H12.5409C12.7064 22.3767 12.8656 22.3139 12.9866 22.201C13.1076 22.0882 13.1814 21.9337 13.1933 21.7687C13.2051 21.6037 13.1541 21.4403 13.0504 21.3113C12.9468 21.1823 12.7982 21.0974 12.6344 21.0734L9.67263 20.65C9.58997 20.6381 9.5109 20.6084 9.44093 20.5628C9.37097 20.5172 9.31179 20.4569 9.26755 20.3861L6.92829 16.6434C6.75772 16.3706 6.51494 16.1504 6.22686 16.0071C5.93879 15.8639 5.61667 15.8032 5.29623 15.8319C4.97578 15.8605 4.66953 15.9773 4.41142 16.1694C4.15332 16.3614 3.95343 16.6212 3.83394 16.9199L1.95886 21.6065C1.49341 22.7671 1.22408 23.997 1.16189 25.2459Z" fill="#F41E1E"/>
<path d="M28.6885 14.3443C28.1211 14.3443 27.5665 14.176 27.0947 13.8608C26.6229 13.5455 26.2552 13.0975 26.0381 12.5733C25.8209 12.0491 25.7641 11.4722 25.8748 10.9157C25.9855 10.3592 26.2587 9.84804 26.6599 9.44682C27.0612 9.04561 27.5723 8.77238 28.1288 8.66168C28.6853 8.55099 29.2622 8.6078 29.7864 8.82493C30.3106 9.04207 30.7587 9.40978 31.0739 9.88156C31.3891 10.3533 31.5574 10.908 31.5574 11.4754C31.5565 12.236 31.2539 12.9652 30.7161 13.503C30.1783 14.0408 29.4491 14.3434 28.6885 14.3443ZM28.6885 9.7541C28.3481 9.7541 28.0153 9.85505 27.7322 10.0442C27.4492 10.2333 27.2285 10.5022 27.0982 10.8167C26.968 11.1312 26.9339 11.4773 27.0003 11.8112C27.0667 12.1451 27.2306 12.4518 27.4714 12.6926C27.7121 12.9333 28.0188 13.0972 28.3527 13.1636C28.6866 13.2301 29.0327 13.196 29.3472 13.0657C29.6618 12.9354 29.9306 12.7148 30.1197 12.4317C30.3089 12.1487 30.4098 11.8159 30.4098 11.4754C30.4098 11.0189 30.2285 10.5811 29.9057 10.2583C29.5829 9.93545 29.1451 9.7541 28.6885 9.7541Z" fill="#F41E1E"/>
<path d="M35 26.3934H30.4098C30.2756 26.3933 30.1456 26.3461 30.0425 26.26C29.9395 26.174 29.8699 26.0545 29.8458 25.9224L29.0058 21.3047L28.0574 23.2073C28.0095 23.3031 27.9358 23.3836 27.8445 23.4397C27.7532 23.4958 27.6481 23.5252 27.541 23.5246H23.0329C22.5764 23.5254 22.1366 23.3531 21.8022 23.0423C21.4678 22.7315 21.2638 22.3054 21.2313 21.8501C21.1989 21.3947 21.3403 20.944 21.6272 20.5889C21.9141 20.2338 22.325 20.0008 22.777 19.9368L25.4737 19.5518L27.6718 16.0352C27.881 15.7016 28.1558 15.4142 28.4797 15.1904C28.8035 14.9666 29.1696 14.811 29.5555 14.7333C30.2175 14.6006 30.9051 14.704 31.4988 15.0256C32.0925 15.3472 32.5548 15.8666 32.8053 16.4936L34.6798 21.1807C35.2718 22.6556 35.5753 24.2304 35.5738 25.8197C35.5738 25.9718 35.5133 26.1178 35.4057 26.2254C35.2981 26.333 35.1522 26.3934 35 26.3934ZM30.8889 25.2459H34.4119C34.3497 23.997 34.0804 22.7671 33.6149 21.6065L31.7398 16.9199C31.6204 16.6212 31.4206 16.3614 31.1626 16.1693C30.9045 15.9772 30.5983 15.8604 30.2779 15.8317C29.9574 15.8031 29.6354 15.8638 29.3473 16.007C29.0593 16.1503 28.8166 16.3706 28.6461 16.6434L26.3062 20.3861C26.262 20.4569 26.2028 20.5172 26.1329 20.5628C26.0629 20.6084 25.9838 20.6381 25.9012 20.65L22.9394 21.0734C22.7756 21.0974 22.627 21.1823 22.5234 21.3113C22.4197 21.4403 22.3687 21.6037 22.3805 21.7687C22.3924 21.9337 22.4662 22.0882 22.5872 22.201C22.7082 22.3139 22.8674 22.3767 23.0329 22.377H27.1864L28.7488 19.2517C28.8026 19.1441 28.889 19.0561 28.9956 19.0003C29.1023 18.9444 29.2238 18.9235 29.3429 18.9405C29.4621 18.9575 29.5729 19.0116 29.6596 19.095C29.7464 19.1785 29.8047 19.2871 29.8263 19.4055L30.8889 25.2459Z" fill="#F41E1E"/>
<path d="M25.0359 17.9957L24.2803 16.0656H11.2935L10.7628 17.422L9.69673 17.0043L10.3698 15.2829C10.4116 15.1758 10.4847 15.0837 10.5796 15.0187C10.6744 14.9536 10.7866 14.9185 10.9016 14.918H24.6721C24.7876 14.918 24.9005 14.9528 24.9959 15.0179C25.0913 15.083 25.1648 15.1754 25.2069 15.2829L26.1048 17.578L25.0359 17.9957Z" fill="#F41E1E"/>
<path d="M17.7869 28.6885C16.8741 28.6876 15.999 28.3246 15.3536 27.6792C14.7082 27.0338 14.3452 26.1587 14.3443 25.2459V24.6721C14.3443 23.7591 14.707 22.8834 15.3526 22.2378C15.9982 21.5922 16.8738 21.2295 17.7869 21.2295C18.6999 21.2295 19.5756 21.5922 20.2212 22.2378C20.8668 22.8834 21.2295 23.7591 21.2295 24.6721V25.2459C21.2286 26.1587 20.8656 27.0338 20.2202 27.6792C19.5748 28.3246 18.6997 28.6876 17.7869 28.6885ZM17.7869 22.377C17.1782 22.377 16.5944 22.6189 16.164 23.0493C15.7336 23.4797 15.4918 24.0634 15.4918 24.6721V25.2459C15.4918 25.8546 15.7336 26.4384 16.164 26.8688C16.5944 27.2992 17.1782 27.541 17.7869 27.541C18.3956 27.541 18.9793 27.2992 19.4098 26.8688C19.8402 26.4384 20.082 25.8546 20.082 25.2459V24.6721C20.082 24.0634 19.8402 23.4797 19.4098 23.0493C18.9793 22.6189 18.3956 22.377 17.7869 22.377Z" fill="#F41E1E"/>
<path d="M24.0984 35H22.9508V32.1311C22.9508 31.6746 22.7695 31.2368 22.4467 30.914C22.1239 30.5912 21.686 30.4098 21.2295 30.4098H14.3443C13.8877 30.4098 13.4499 30.5912 13.1271 30.914C12.8043 31.2368 12.623 31.6746 12.623 32.1311V35H11.4754V32.1311C11.4763 31.3706 11.7789 30.6414 12.3167 30.1036C12.8545 29.5658 13.5837 29.2632 14.3443 29.2623H21.2295C21.9901 29.2632 22.7193 29.5658 23.2571 30.1036C23.7949 30.6414 24.0975 31.3706 24.0984 32.1311V35Z" fill="#F41E1E"/>
<path d="M29.8361 31.5574H24.6721V30.4098H29.2623V28.7964L27.5054 24.3072L28.5743 23.8895L30.3708 28.4797C30.3967 28.5463 30.41 28.6171 30.4098 28.6885V30.9836C30.4098 31.1358 30.3494 31.2817 30.2418 31.3893C30.1342 31.4969 29.9882 31.5574 29.8361 31.5574Z" fill="#F41E1E"/>
<path d="M10.9016 31.5574H5.73771C5.58554 31.5574 5.4396 31.4969 5.332 31.3893C5.22439 31.2817 5.16394 31.1358 5.16394 30.9836V28.6885C5.16383 28.6171 5.17706 28.5463 5.20296 28.4797L6.99943 23.8895L8.06894 24.3072L6.31148 28.7964V30.4098H10.9016V31.5574Z" fill="#F41E1E"/>
<path d="M33.8525 15.4918H32.7049V1.14754H2.86886V15.4918H1.72132V0.57377C1.72132 0.421597 1.78177 0.275656 1.88937 0.168053C1.99697 0.0604506 2.14292 0 2.29509 0H33.2787C33.4309 0 33.5768 0.0604506 33.6844 0.168053C33.792 0.275656 33.8525 0.421597 33.8525 0.57377V15.4918Z" fill="#F41E1E"/>
<path d="M11.8811 11.8811L11.0698 11.0698L15.0862 7.05336C15.1938 6.9458 15.3397 6.88537 15.4918 6.88537C15.644 6.88537 15.7899 6.9458 15.8975 7.05336L18.9344 10.0903L25.9878 3.03697L26.7991 3.84828L19.3401 11.3073C19.2325 11.4149 19.0866 11.4753 18.9344 11.4753C18.7823 11.4753 18.6364 11.4149 18.5288 11.3073L15.4918 8.27033L11.8811 11.8811Z" fill="#F41E1E"/>
<path d="M26.9672 6.88525H25.8197V4.01639H22.9508V2.86885H26.3934C26.5456 2.86885 26.6916 2.9293 26.7992 3.03691C26.9068 3.14451 26.9672 3.29045 26.9672 3.44262V6.88525Z" fill="#F41E1E"/>
<path d="M5.73771 2.86885H12.623V4.01639H5.73771V2.86885Z" fill="#F41E1E"/>
<path d="M5.73771 5.16393H9.7541V6.31148H5.73771V5.16393Z" fill="#F41E1E"/>
</svg>

<?xml version="1.0" encoding="UTF-8"?>
<svg id="Camada_1" data-name="Camada 1" xmlns="http://www.w3.org/2000/svg" viewBox="0 0 35.57 35">
  <defs>
    <style>
      .cls-1 {
        fill: #f1c40f;
      }
    </style>
  </defs>
  <path class="cls-1" d="M6.89,14.34c-.57,0-1.12-.17-1.59-.48-.47-.32-.84-.76-1.06-1.29-.22-.52-.27-1.1-.16-1.66,.11-.56,.38-1.07,.79-1.47s.91-.67,1.47-.79c.56-.11,1.13-.05,1.66,.16,.52,.22,.97,.58,1.29,1.06,.32,.47,.48,1.03,.48,1.59,0,.76-.3,1.49-.84,2.03-.54,.54-1.27,.84-2.03,.84Zm0-4.59c-.34,0-.67,.1-.96,.29-.28,.19-.5,.46-.63,.77s-.16,.66-.1,.99c.07,.33,.23,.64,.47,.88,.24,.24,.55,.4,.88,.47,.33,.07,.68,.03,.99-.1,.31-.13,.58-.35,.77-.63,.19-.28,.29-.62,.29-.96,0-.46-.18-.89-.5-1.22-.32-.32-.76-.5-1.22-.5Z"/>
  <path class="cls-1" d="M5.16,26.39H.57c-.15,0-.3-.06-.41-.17C.06,26.12,0,25.97,0,25.82c0-1.59,.3-3.16,.89-4.64l1.87-4.69c.25-.63,.71-1.15,1.31-1.47,.59-.32,1.28-.43,1.94-.29,.39,.08,.75,.23,1.08,.46,.32,.22,.6,.51,.81,.84l2.2,3.52,2.7,.39c.45,.06,.86,.3,1.15,.65,.29,.35,.43,.81,.4,1.26-.03,.46-.24,.88-.57,1.19-.33,.31-.77,.48-1.23,.48h-4.51c-.11,0-.21-.03-.3-.09-.09-.06-.16-.14-.21-.23l-.95-1.9-.84,4.62c-.02,.13-.09,.25-.2,.34-.1,.09-.23,.13-.37,.13Zm-4-1.15h3.52l1.06-5.84c.02-.12,.08-.23,.17-.31,.09-.08,.2-.14,.32-.15,.12-.02,.24,0,.35,.06,.11,.06,.19,.14,.25,.25l1.56,3.13h4.15c.17,0,.32-.06,.45-.18,.12-.11,.19-.27,.21-.43,.01-.16-.04-.33-.14-.46-.1-.13-.25-.21-.42-.24l-2.96-.42c-.08-.01-.16-.04-.23-.09-.07-.05-.13-.11-.17-.18l-2.34-3.74c-.17-.27-.41-.49-.7-.64-.29-.14-.61-.2-.93-.18-.32,.03-.63,.15-.88,.34-.26,.19-.46,.45-.58,.75l-1.88,4.69c-.47,1.16-.73,2.39-.8,3.64Z"/>
  <path class="cls-1" d="M28.69,14.34c-.57,0-1.12-.17-1.59-.48-.47-.32-.84-.76-1.06-1.29-.22-.52-.27-1.1-.16-1.66s.38-1.07,.79-1.47c.4-.4,.91-.67,1.47-.79,.56-.11,1.13-.05,1.66,.16,.52,.22,.97,.58,1.29,1.06,.32,.47,.48,1.03,.48,1.59,0,.76-.3,1.49-.84,2.03s-1.27,.84-2.03,.84Zm0-4.59c-.34,0-.67,.1-.96,.29-.28,.19-.5,.46-.63,.77-.13,.31-.16,.66-.1,.99,.07,.33,.23,.64,.47,.88,.24,.24,.55,.4,.88,.47,.33,.07,.68,.03,.99-.1,.31-.13,.58-.35,.77-.63,.19-.28,.29-.62,.29-.96,0-.46-.18-.89-.5-1.22-.32-.32-.76-.5-1.22-.5Z"/>
  <path class="cls-1" d="M35,26.39h-4.59c-.13,0-.26-.05-.37-.13-.1-.09-.17-.21-.2-.34l-.84-4.62-.95,1.9c-.05,.1-.12,.18-.21,.23-.09,.06-.2,.09-.3,.08h-4.51c-.46,0-.9-.17-1.23-.48-.33-.31-.54-.74-.57-1.19-.03-.46,.11-.91,.4-1.26,.29-.36,.7-.59,1.15-.65l2.7-.39,2.2-3.52c.21-.33,.48-.62,.81-.84,.32-.22,.69-.38,1.08-.46,.66-.13,1.35-.03,1.94,.29,.59,.32,1.06,.84,1.31,1.47l1.87,4.69c.59,1.47,.9,3.05,.89,4.64,0,.15-.06,.3-.17,.41-.11,.11-.25,.17-.41,.17Zm-4.11-1.15h3.52c-.06-1.25-.33-2.48-.8-3.64l-1.88-4.69c-.12-.3-.32-.56-.58-.75-.26-.19-.56-.31-.88-.34-.32-.03-.64,.03-.93,.18-.29,.14-.53,.36-.7,.64l-2.34,3.74c-.04,.07-.1,.13-.17,.18-.07,.05-.15,.08-.23,.09l-2.96,.42c-.16,.02-.31,.11-.42,.24-.1,.13-.15,.29-.14,.46,.01,.17,.09,.32,.21,.43,.12,.11,.28,.18,.45,.18h4.15l1.56-3.13c.05-.11,.14-.2,.25-.25,.11-.06,.23-.08,.35-.06,.12,.02,.23,.07,.32,.15,.09,.08,.15,.19,.17,.31l1.06,5.84Z"/>
  <path class="cls-1" d="M25.04,18l-.76-1.93H11.29l-.53,1.36-1.07-.42,.67-1.72c.04-.11,.11-.2,.21-.26,.09-.07,.21-.1,.32-.1h13.77c.12,0,.23,.03,.32,.1,.1,.07,.17,.16,.21,.26l.9,2.3-1.07,.42Z"/>
  <path class="cls-1" d="M17.79,28.69c-.91,0-1.79-.36-2.43-1.01-.65-.65-1.01-1.52-1.01-2.43v-.57c0-.91,.36-1.79,1.01-2.43,.65-.65,1.52-1.01,2.43-1.01s1.79,.36,2.43,1.01,1.01,1.52,1.01,2.43v.57c0,.91-.36,1.79-1.01,2.43-.65,.65-1.52,1.01-2.43,1.01Zm0-6.31c-.61,0-1.19,.24-1.62,.67-.43,.43-.67,1.01-.67,1.62v.57c0,.61,.24,1.19,.67,1.62,.43,.43,1.01,.67,1.62,.67s1.19-.24,1.62-.67c.43-.43,.67-1.01,.67-1.62v-.57c0-.61-.24-1.19-.67-1.62-.43-.43-1.01-.67-1.62-.67Z"/>
  <path class="cls-1" d="M24.1,35h-1.15v-2.87c0-.46-.18-.89-.5-1.22-.32-.32-.76-.5-1.22-.5h-6.89c-.46,0-.89,.18-1.22,.5s-.5,.76-.5,1.22v2.87h-1.15v-2.87c0-.76,.3-1.49,.84-2.03s1.27-.84,2.03-.84h6.89c.76,0,1.49,.3,2.03,.84,.54,.54,.84,1.27,.84,2.03v2.87Z"/>
  <path class="cls-1" d="M29.84,31.56h-5.16v-1.15h4.59v-1.61l-1.76-4.49,1.07-.42,1.8,4.59c.03,.07,.04,.14,.04,.21v2.3c0,.15-.06,.3-.17,.41s-.25,.17-.41,.17Z"/>
  <path class="cls-1" d="M10.9,31.56H5.74c-.15,0-.3-.06-.41-.17-.11-.11-.17-.25-.17-.41v-2.3c0-.07,.01-.14,.04-.21l1.8-4.59,1.07,.42-1.76,4.49v1.61h4.59v1.15Z"/>
  <path class="cls-1" d="M33.85,15.49h-1.15V1.15H2.87V15.49H1.72V.57c0-.15,.06-.3,.17-.41,.11-.11,.25-.17,.41-.17h30.98c.15,0,.3,.06,.41,.17,.11,.11,.17,.25,.17,.41V15.49Z"/>
  <path class="cls-1" d="M11.88,11.88l-.81-.81,4.02-4.02c.11-.11,.25-.17,.41-.17s.3,.06,.41,.17l3.04,3.04,7.05-7.05,.81,.81-7.46,7.46c-.11,.11-.25,.17-.41,.17s-.3-.06-.41-.17l-3.04-3.04-3.61,3.61Z"/>
  <path class="cls-1" d="M26.97,6.89h-1.15v-2.87h-2.87v-1.15h3.44c.15,0,.3,.06,.41,.17,.11,.11,.17,.25,.17,.41v3.44Z"/>
  <path class="cls-1" d="M5.74,2.87h6.89v1.15H5.74v-1.15Z"/>
  <path class="cls-1" d="M5.74,5.16h4.02v1.15H5.74v-1.15Z"/>
</svg>
